images_elementary_svg/cmd/sc_dbqueryrename.svg

<svg height="16" width="16" xmlns="http://www.w3.org/2000/svg" xmlns:xlink="http://www.w3.org/1999/xlink"><linearGradient id="a" gradientTransform="matrix(.3143 0 0 .3421 .457 15.618)" gradientUnits="userSpaceOnUse" x1="21.381" x2="21.381" y1="5.053" y2="44.137"><stop offset="0" stop-color="#fff"/><stop offset=".081" stop-color="#fff" stop-opacity=".235"/><stop offset=".923" stop-color="#fff" stop-opacity=".157"/><stop offset="1" stop-color="#fff" stop-opacity=".392"/></linearGradient><linearGradient id="b" gradientTransform="matrix(.25894 0 0 .19506 -18.915 21.137)" gradientUnits="userSpaceOnUse" spreadMethod="reflect" x1="102.31" x2="102.31" y1="-2.393" y2="-24.582"><stop offset="0" stop-color="#a5a6a8"/><stop offset="1" stop-color="#e8e8e8"/></linearGradient><linearGradient id="c" gradientTransform="matrix(.25894 0 0 .19506 -18.915 21.137)" gradientUnits="userSpaceOnUse" x1="109.96" x2="109.96" y1="-24.911" y2="-2.376"><stop offset="0" stop-color="#b3b3b3"/><stop offset="1" stop-color="#dadada"/></linearGradient><linearGradient id="d"><stop offset="0" stop-color="#868688"/><stop offset="1" stop-color="#d9d9da"/></linearGradient><linearGradient id="e" gradientTransform="matrix(.25764 0 0 .252 -18.787 24.39)" gradientUnits="userSpaceOnUse" spreadMethod="reflect" x1="103.95" x2="89.424" xlink:href="#d" y1="-7.666" y2="-7.666"/><linearGradient id="f"><stop offset="0" stop-color="#a0a0a0"/><stop offset="1" stop-color="#4a4a4a"/></linearGradient><linearGradient id="g" gradientTransform="matrix(.56273 0 0 .58293 -44.99 7.8)" gradientUnits="userSpaceOnUse" x1="89.018" x2="89.018" xlink:href="#f" y1="22.537" y2="27.546"/><linearGradient id="h" gradientTransform="matrix(.25764 0 0 .256 -18.787 28.336)" gradientUnits="userSpaceOnUse" spreadMethod="reflect" x1="103.95" x2="89.424" xlink:href="#d" y1="-7.666" y2="-7.666"/><linearGradient id="i" gradientTransform="matrix(.56273 0 0 .59218 -44.99 11.484)" gradientUnits="userSpaceOnUse" x1="89.018" x2="89.018" xlink:href="#f" y1="22.537" y2="27.546"/><linearGradient id="j" gradientTransform="matrix(.25764 0 0 .256 -18.787 32.336)" gradientUnits="userSpaceOnUse" spreadMethod="reflect" x1="103.95" x2="89.424" xlink:href="#d" y1="-7.666" y2="-7.666"/><linearGradient id="k" gradientTransform="matrix(.56273 0 0 .59218 -44.99 15.484)" gradientUnits="userSpaceOnUse" x1="89.018" x2="89.018" xlink:href="#f" y1="22.537" y2="27.546"/><g transform="translate(0 -16)"><path d="m14.46 29.5c0 1.2-2.897 2-6.467 2s-6.468-.8-6.468-2c0-4.634-.79-3.195 6.468-3.25 7.424-.056 6.467-1.41 6.467 3.25z" fill="url(#j)" stroke="url(#k)"/><path d="m14.5 26.5c0 1.105-2.91 2-6.5 2s-6.5-.895-6.5-2 2.91-2 6.5-2 6.5.895 6.5 2z" fill="none" stroke="#d8d8d8"/><path d="m14.46 25.5c0 1.157-2.897 2-6.467 2s-6.468-.8-6.468-2c0-4.634-.79-3.195 6.468-3.25 7.424-.056 6.467-1.41 6.467 3.25z" fill="url(#h)" stroke="url(#i)"/><path d="m14.5 22.5c0 1.105-2.91 2-6.5 2s-6.5-.895-6.5-2 2.91-2 6.5-2 6.5.895 6.5 2z" fill="none" stroke="#d8d8d8"/><path d="m14.46 21.5c0 1.218-2.897 2-6.467 2s-6.468-.95-6.468-2c0-4.345-.79-3.046 6.468-3.1 7.424-.056 6.467-.83 6.467 3.1z" fill="url(#e)" stroke="url(#g)"/><path d="m14.5 18.5c0 1.105-2.91 2-6.5 2s-6.5-.895-6.5-2 2.91-2 6.5-2 6.5.895 6.5 2z" fill="url(#b)" stroke="url(#c)"/><rect fill="none" height="13" opacity=".5" rx="17.5" ry="1.5" stroke="url(#a)" width="11" x="2.5" y="17.5"/></g><path d="m9 0v3h1l1-.287v9.487l-1 .8h-1v3h7v-3h-1l-1-.726v-9.596l1.143.322h.857v-3z" fill-rule="evenodd" opacity=".52"/><path d="m16-4.944 1.94-.027s1 0 1 1v15.388s-.087 1.544-1.088 1.544h-1.852m5.833-17.95-1.91.017s-1 0-1 1v15.932s.09 1.01 1.09 1l1.82-.016" fill="none" stroke="#fff" stroke-width="1.267" transform="matrix(.85714 0 0 .72727 -3.714 5.09)"/></svg>

<?xml version="1.0" encoding="UTF-8" standalone="no"?>
<svg
   xmlns:dc="http://purl.org/dc/elements/1.1/"
   xmlns:cc="http://creativecommons.org/ns#"
   xmlns:rdf="http://www.w3.org/1999/02/22-rdf-syntax-ns#"
   xmlns:svg="http://www.w3.org/2000/svg"
   xmlns="http://www.w3.org/2000/svg"
   xmlns:xlink="http://www.w3.org/1999/xlink"
   xmlns:sodipodi="http://sodipodi.sourceforge.net/DTD/sodipodi-0.dtd"
   xmlns:inkscape="http://www.inkscape.org/namespaces/inkscape"
   height="16"
   width="16"
   version="1.1"
   id="svg1474"
   sodipodi:docname="sc_dbqueryrename.svg"
   inkscape:version="0.92.3 (unknown)">
  <metadata
     id="metadata1478">
    <rdf:RDF>
      <cc:Work
         rdf:about="">
        <dc:format>image/svg+xml</dc:format>
        <dc:type
           rdf:resource="http://purl.org/dc/dcmitype/StillImage" />
        <dc:title></dc:title>
      </cc:Work>
    </rdf:RDF>
  </metadata>
  <sodipodi:namedview
     pagecolor="#ffffff"
     bordercolor="#666666"
     borderopacity="1"
     objecttolerance="10"
     gridtolerance="10"
     guidetolerance="10"
     inkscape:pageopacity="0"
     inkscape:pageshadow="2"
     inkscape:window-width="1366"
     inkscape:window-height="706"
     id="namedview1476"
     showgrid="false"
     inkscape:zoom="14.75"
     inkscape:cx="-0.71186441"
     inkscape:cy="7.4576271"
     inkscape:window-x="0"
     inkscape:window-y="0"
     inkscape:window-maximized="1"
     inkscape:current-layer="svg1474" />
  <defs
     id="defs1432">
    <linearGradient
       id="n"
       y2="44.137"
       gradientUnits="userSpaceOnUse"
       x2="21.381"
       gradientTransform="matrix(.3143 0 0 .3421 .457 15.618)"
       y1="5.053"
       x1="21.381">
      <stop
         stop-color="#fff"
         offset="0"
         id="stop1333" />
      <stop
         stop-color="#fff"
         stop-opacity=".235"
         offset=".081"
         id="stop1335" />
      <stop
         stop-color="#fff"
         stop-opacity=".157"
         offset=".923"
         id="stop1337" />
      <stop
         stop-color="#fff"
         stop-opacity=".392"
         offset="1"
         id="stop1339" />
    </linearGradient>
    <linearGradient
       id="m"
       y2="-24.582"
       spreadMethod="reflect"
       gradientUnits="userSpaceOnUse"
       x2="102.31"
       gradientTransform="matrix(.25894 0 0 .19506 -18.915 21.137)"
       y1="-2.393"
       x1="102.31">
      <stop
         stop-color="#a5a6a8"
         offset="0"
         id="stop1342" />
      <stop
         stop-color="#e8e8e8"
         offset="1"
         id="stop1344" />
    </linearGradient>
    <linearGradient
       id="l"
       y2="-2.376"
       gradientUnits="userSpaceOnUse"
       x2="109.96"
       gradientTransform="matrix(.25894 0 0 .19506 -18.915 21.137)"
       y1="-24.911"
       x1="109.96">
      <stop
         stop-color="#b3b3b3"
         offset="0"
         id="stop1347" />
      <stop
         stop-color="#dadada"
         offset="1"
         id="stop1349" />
    </linearGradient>
    <linearGradient
       id="k"
       y2="-7.666"
       spreadMethod="reflect"
       gradientUnits="userSpaceOnUse"
       x2="89.424"
       gradientTransform="matrix(.25764 0 0 .252 -18.787 24.39)"
       y1="-7.666"
       x1="103.95">
      <stop
         stop-color="#868688"
         offset="0"
         id="stop1352" />
      <stop
         stop-color="#d9d9da"
         offset="1"
         id="stop1354" />
    </linearGradient>
    <linearGradient
       id="j"
       y2="27.546"
       gradientUnits="userSpaceOnUse"
       x2="89.018"
       gradientTransform="matrix(.56273 0 0 .58293 -44.99 7.8)"
       y1="22.537"
       x1="89.018">
      <stop
         stop-color="#a0a0a0"
         offset="0"
         id="stop1357" />
      <stop
         stop-color="#4a4a4a"
         offset="1"
         id="stop1359" />
    </linearGradient>
    <linearGradient
       id="i"
       y2="-7.666"
       spreadMethod="reflect"
       gradientUnits="userSpaceOnUse"
       x2="89.424"
       gradientTransform="matrix(.25764 0 0 .256 -18.787 28.336)"
       y1="-7.666"
       x1="103.95">
      <stop
         stop-color="#868688"
         offset="0"
         id="stop1362" />
      <stop
         stop-color="#d9d9da"
         offset="1"
         id="stop1364" />
    </linearGradient>
    <linearGradient
       id="h"
       y2="27.546"
       gradientUnits="userSpaceOnUse"
       x2="89.018"
       gradientTransform="matrix(.56273 0 0 .59218 -44.99 11.484)"
       y1="22.537"
       x1="89.018">
      <stop
         stop-color="#a0a0a0"
         offset="0"
         id="stop1367" />
      <stop
         stop-color="#4a4a4a"
         offset="1"
         id="stop1369" />
    </linearGradient>
    <linearGradient
       id="g"
       y2="-7.666"
       spreadMethod="reflect"
       gradientUnits="userSpaceOnUse"
       x2="89.424"
       gradientTransform="matrix(.25764 0 0 .256 -18.787 32.336)"
       y1="-7.666"
       x1="103.95">
      <stop
         stop-color="#868688"
         offset="0"
         id="stop1372" />
      <stop
         stop-color="#d9d9da"
         offset="1"
         id="stop1374" />
    </linearGradient>
    <linearGradient
       id="f"
       y2="27.546"
       gradientUnits="userSpaceOnUse"
       x2="89.018"
       gradientTransform="matrix(.56273 0 0 .59218 -44.99 15.484)"
       y1="22.537"
       x1="89.018">
      <stop
         stop-color="#a0a0a0"
         offset="0"
         id="stop1377" />
      <stop
         stop-color="#4a4a4a"
         offset="1"
         id="stop1379" />
    </linearGradient>
    <linearGradient
       x1="23.576"
       y1="25.357"
       x2="23.576"
       y2="31.211"
       id="o"
       xlink:href="#a"
       gradientUnits="userSpaceOnUse"
       gradientTransform="matrix(.41578 -.4175 .51898 .51462 -15.747 2.65)" />
    <linearGradient
       id="a">
      <stop
         offset="0"
         stop-color="#181818"
         id="stop1383" />
      <stop
         offset=".135"
         stop-color="#dbdbdb"
         id="stop1385" />
      <stop
         offset=".202"
         stop-color="#a4a4a4"
         id="stop1387" />
      <stop
         offset=".27"
         stop-color="#fff"
         id="stop1389" />
      <stop
         offset=".447"
         stop-color="#8d8d8d"
         id="stop1391" />
      <stop
         offset=".571"
         stop-color="#959595"
         id="stop1393" />
      <stop
         offset=".72"
         stop-color="#cecece"
         id="stop1395" />
      <stop
         offset="1"
         stop-color="#181818"
         id="stop1397" />
    </linearGradient>
    <linearGradient
       x1="30.038"
       y1="24.99"
       x2="30.038"
       y2="30"
       id="p"
       xlink:href="#b"
       gradientUnits="userSpaceOnUse"
       gradientTransform="matrix(.40402 -.4057 .60738 .60227 -17.868 .693)" />
    <linearGradient
       id="b">
      <stop
         offset="0"
         stop-color="#565656"
         id="stop1401" />
      <stop
         offset=".5"
         stop-color="#9a9a9a"
         id="stop1403" />
      <stop
         offset="1"
         stop-color="#545454"
         id="stop1405" />
    </linearGradient>
    <linearGradient
       x1="30.038"
       y1="24.99"
       x2="30.038"
       y2="30"
       id="q"
       xlink:href="#c"
       gradientUnits="userSpaceOnUse"
       gradientTransform="matrix(.40402 -.4057 .60738 .60227 -17.983 .81)" />
    <linearGradient
       id="c">
      <stop
         offset="0"
         stop-color="#b1b1b1"
         id="stop1409" />
      <stop
         offset=".5"
         stop-color="#fff"
         id="stop1411" />
      <stop
         offset="1"
         stop-color="#8f8f8f"
         id="stop1413" />
    </linearGradient>
    <linearGradient
       x1="30.038"
       y1="24.99"
       x2="30.038"
       y2="30"
       id="r"
       xlink:href="#b"
       gradientUnits="userSpaceOnUse"
       gradientTransform="matrix(.40402 -.4057 .60738 .60227 -17.466 .29)" />
    <linearGradient
       x1="30.038"
       y1="24.99"
       x2="30.038"
       y2="30"
       id="s"
       xlink:href="#c"
       gradientUnits="userSpaceOnUse"
       gradientTransform="matrix(.40402 -.4057 .60738 .60227 -17.58 .405)" />
    <linearGradient
       x1="30.038"
       y1="24.99"
       x2="30.038"
       y2="30"
       id="t"
       xlink:href="#b"
       gradientUnits="userSpaceOnUse"
       gradientTransform="matrix(.40402 -.4057 .60738 .60227 -17.062 -.116)" />
    <linearGradient
       x1="30.038"
       y1="24.99"
       x2="30.038"
       y2="30"
       id="u"
       xlink:href="#c"
       gradientUnits="userSpaceOnUse"
       gradientTransform="matrix(.40402 -.4057 .60738 .60227 -17.177 0)" />
    <linearGradient
       x1="9"
       y1="29.057"
       x2="9"
       y2="26.03"
       id="v"
       xlink:href="#d"
       gradientUnits="userSpaceOnUse"
       gradientTransform="matrix(.40402 -.4057 .60738 .60227 -17.637 .462)" />
    <linearGradient
       id="d">
      <stop
         offset="0"
         stop-color="#ece5a5"
         id="stop1421" />
      <stop
         offset="1"
         stop-color="#fcfbf2"
         id="stop1423" />
    </linearGradient>
    <linearGradient
       x1="5.518"
       y1="37.372"
       x2="9.522"
       y2="41.392"
       id="w"
       xlink:href="#e"
       gradientUnits="userSpaceOnUse"
       gradientTransform="matrix(.37638 .03615 .0367 .37487 -2.218 -1.133)" />
    <linearGradient
       id="e">
      <stop
         offset="0"
         stop-color="#dbce48"
         id="stop1427" />
      <stop
         offset="1"
         stop-color="#c5b625"
         id="stop1429" />
    </linearGradient>
  </defs>
  <g
     transform="translate(0 -16)"
     id="g1448">
    <path
       d="M14.46 29.5c0 1.2-2.897 2-6.467 2s-6.468-.8-6.468-2c0-4.634-.79-3.195 6.468-3.25 7.424-.056 6.467-1.41 6.467 3.25z"
       stroke="url(#f)"
       fill="url(#g)"
       id="path1434" />
    <path
       d="M14.5 26.5c0 1.105-2.91 2-6.5 2s-6.5-.895-6.5-2 2.91-2 6.5-2 6.5.895 6.5 2z"
       stroke="#d8d8d8"
       fill="none"
       id="path1436" />
    <path
       d="M14.46 25.5c0 1.157-2.897 2-6.467 2s-6.468-.8-6.468-2c0-4.634-.79-3.195 6.468-3.25 7.424-.056 6.467-1.41 6.467 3.25z"
       stroke="url(#h)"
       fill="url(#i)"
       id="path1438" />
    <path
       d="M14.5 22.5c0 1.105-2.91 2-6.5 2s-6.5-.895-6.5-2 2.91-2 6.5-2 6.5.895 6.5 2z"
       stroke="#d8d8d8"
       fill="none"
       id="path1440" />
    <path
       d="M14.46 21.5c0 1.218-2.897 2-6.467 2s-6.468-.95-6.468-2c0-4.345-.79-3.046 6.468-3.1 7.424-.056 6.467-.83 6.467 3.1z"
       stroke="url(#j)"
       fill="url(#k)"
       id="path1442" />
    <path
       d="M14.5 18.5c0 1.105-2.91 2-6.5 2s-6.5-.895-6.5-2 2.91-2 6.5-2 6.5.895 6.5 2z"
       stroke="url(#l)"
       fill="url(#m)"
       id="path1444" />
    <rect
       opacity=".5"
       rx="17.5"
       ry="1.5"
       height="13"
       width="11"
       stroke="url(#n)"
       y="17.5"
       x="2.5"
       fill="none"
       color="#000"
       id="rect1446" />
  </g>
  <g
     id="g38">
    <path
       style="opacity:0.51999996;fill-rule:evenodd"
       inkscape:connector-curvature="0"
       d="m 9,0 v 3 h 1 L 11,2.713 V 12.2 L 10,13 H 9 v 3 h 7 V 13 H 15 L 14,12.274 V 2.678 L 15.143,3 H 16 V 0 Z"
       id="path34" />
    <path
       style="fill:none;stroke:#ffffff;stroke-width:1.26699996"
       inkscape:connector-curvature="0"
       d="m 16,-4.944 1.94,-0.027 c 0,0 1,0 1,1 v 15.388 c 0,0 -0.087,1.544 -1.088,1.544 H 16 m 5.833,-17.95 -1.91,0.017 c 0,0 -1,0 -1,1 V 11.96 c 0,0 0.09,1.01 1.09,1 l 1.82,-0.016"
       transform="matrix(0.85714,0,0,0.72727,-3.714,5.09)"
       id="path36-3" />
  </g>
</svg>
